status/64/network-error.svg

<?xml version="1.0" encoding="UTF-8" standalone="no"?>
<svg
   xmlns:osb="http://www.openswatchbook.org/uri/2009/osb"
   xmlns:dc="http://purl.org/dc/elements/1.1/"
   xmlns:cc="http://creativecommons.org/ns#"
   xmlns:rdf="http://www.w3.org/1999/02/22-rdf-syntax-ns#"
   xmlns:svg="http://www.w3.org/2000/svg"
   xmlns="http://www.w3.org/2000/svg"
   xmlns:xlink="http://www.w3.org/1999/xlink"
   version="1.1"
   width="64"
   height="64"
   id="svg4518">
  <defs
     id="defs4520">
    <linearGradient
       x1="63.397362"
       y1="-12.489107"
       x2="63.397362"
       y2="5.4675598"
       id="linearGradient4402"
       xlink:href="#linearGradient4873-4"
       gradientUnits="userSpaceOnUse"
       gradientTransform="matrix(1.6579954,0,0,1.6579577,-55.127981,53.820816)" />
    <linearGradient
       id="linearGradient4873-4">
      <stop
         id="stop4875-0"
         style="stop-color:#ffffff;stop-opacity:1"
         offset="0" />
      <stop
         id="stop4877-7"
         style="stop-color:#ffffff;stop-opacity:0"
         offset="1" />
    </linearGradient>
    <radialGradient
       cx="23.407145"
       cy="3.9900031"
       r="20.397499"
       fx="23.407145"
       fy="3.9900031"
       id="radialGradient4405"
       xlink:href="#linearGradient3242-5"
       gradientUnits="userSpaceOnUse"
       gradientTransform="matrix(0,2.0728187,-2.736084,0,58.916984,-18.201198)" />
    <linearGradient
       id="linearGradient3242-5">
      <stop
         id="stop3244-2"
         style="stop-color:#f8b17e;stop-opacity:1"
         offset="0" />
      <stop
         id="stop3246-5"
         style="stop-color:#e35d4f;stop-opacity:1"
         offset="0.26238" />
      <stop
         id="stop3248-9"
         style="stop-color:#c6262e;stop-opacity:1"
         offset="0.66093999" />
      <stop
         id="stop3250-7"
         style="stop-color:#690b54;stop-opacity:1"
         offset="1" />
    </linearGradient>
    <linearGradient
       x1="71.204407"
       y1="15.369057"
       x2="71.204407"
       y2="40.495617"
       id="linearGradient3549"
       xlink:href="#linearGradient4806-2-9"
       gradientUnits="userSpaceOnUse"
       gradientTransform="matrix(2.363279,0,0,2.363279,-138.57229,-33.857264)" />
    <linearGradient
       id="linearGradient4806-2-9">
      <stop
         id="stop4808-4-5"
         style="stop-color:#ffffff;stop-opacity:1"
         offset="0" />
      <stop
         id="stop4810-0-5"
         style="stop-color:#ffffff;stop-opacity:0.23529412"
         offset="0.42447853" />
      <stop
         id="stop4812-8-4"
         style="stop-color:#ffffff;stop-opacity:0.15686275"
         offset="0.82089913" />
      <stop
         id="stop4814-0-5"
         style="stop-color:#ffffff;stop-opacity:0.39215687"
         offset="1" />
    </linearGradient>
    <linearGradient
       x1="37.5"
       y1="23"
       x2="49.089928"
       y2="23.172663"
       id="linearGradient3520"
       xlink:href="#linearGradient3678-5"
       gradientUnits="userSpaceOnUse"
       gradientTransform="matrix(1.3155762,0,0,-1.3155762,-1.523661,62.258671)" />
    <linearGradient
       id="linearGradient3678-5">
      <stop
         id="stop3680-6"
         style="stop-color:#ffffff;stop-opacity:0.13368984"
         offset="0" />
      <stop
         id="stop3682-5"
         style="stop-color:#ffffff;stop-opacity:0"
         offset="1" />
    </linearGradient>
    <linearGradient
       x1="4.4897356"
       y1="23"
       x2="47.500416"
       y2="23"
       id="linearGradient3524"
       xlink:href="#linearGradient3672-3"
       gradientUnits="userSpaceOnUse"
       gradientTransform="matrix(1.3155762,0,0,-1.3155762,-1.523661,62.258671)" />
    <linearGradient
       id="linearGradient3672-3">
      <stop
         id="stop3674-4"
         style="stop-color:#ffffff;stop-opacity:0.49197862"
         offset="0" />
      <stop
         id="stop3676-5"
         style="stop-color:#ffffff;stop-opacity:1"
         offset="1" />
    </linearGradient>
    <linearGradient
       x1="14.893399"
       y1="23.707106"
       x2="2.8318863"
       y2="24.108988"
       id="linearGradient3527"
       xlink:href="#linearGradient3678-5"
       gradientUnits="userSpaceOnUse"
       gradientTransform="matrix(0.93025283,-0.93025283,-0.93025283,-0.93025283,29.45432,77.237902)" />
    <linearGradient
       x1="48.127419"
       y1="25.828426"
       x2="2.8725832"
       y2="24.414213"
       id="linearGradient3531"
       xlink:href="#linearGradient3672-3"
       gradientUnits="userSpaceOnUse"
       gradientTransform="matrix(0.93025283,-0.93025283,-0.93025283,-0.93025283,29.45432,77.237902)" />
    <linearGradient
       x1="46.006096"
       y1="23.707108"
       x2="4.2867966"
       y2="27.242641"
       id="linearGradient3535"
       xlink:href="#linearGradient3672-3"
       gradientUnits="userSpaceOnUse"
       gradientTransform="matrix(0.93025283,0.93025283,-0.93025283,0.93025283,29.697899,-13.116851)" />
    <linearGradient
       x1="14.893399"
       y1="22.292894"
       x2="4.0629644"
       y2="21.829967"
       id="linearGradient3538"
       xlink:href="#linearGradient3678-5"
       gradientUnits="userSpaceOnUse"
       gradientTransform="matrix(0.93025283,0.93025283,-0.93025283,0.93025283,29.697899,-13.116851)" />
    <linearGradient
       x1="3.5"
       y1="23"
       x2="47.5"
       y2="23"
       id="linearGradient3543"
       xlink:href="#linearGradient3672-3"
       gradientUnits="userSpaceOnUse"
       gradientTransform="matrix(0,1.3155762,1.3155762,0,1.765274,-1.54678)" />
    <linearGradient
       x1="35.5"
       y1="22"
       x2="48.262592"
       y2="21.91367"
       id="linearGradient3546"
       xlink:href="#linearGradient3678-5"
       gradientUnits="userSpaceOnUse"
       gradientTransform="matrix(0,1.3155762,1.3155762,0,1.765274,-1.54678)" />
    <radialGradient
       xlink:href="#linearGradient3820-7-2-7"
       id="radialGradient3300"
       gradientUnits="userSpaceOnUse"
       gradientTransform="matrix(0.3823536,7.5555777e-8,-1.8372241e-8,0.1115198,-5.9254271,36.335849)"
       cx="99.189415"
       cy="185.29727"
       fx="99.189415"
       fy="185.29727"
       r="62.769119" />
    <linearGradient
       id="linearGradient3820-7-2-7">
      <stop
         id="stop3822-2-6-8"
         style="stop-color:#000000;stop-opacity:1"
         offset="0" />
      <stop
         id="stop3824-1-2-6"
         style="stop-color:#000000;stop-opacity:0"
         offset="1" />
    </linearGradient>
    <radialGradient
       xlink:href="#linearGradient3820-7-2-7"
       id="radialGradient4192"
       gradientUnits="userSpaceOnUse"
       gradientTransform="matrix(0.2549024,5.3967361e-8,-1.2248161e-8,0.07965545,6.7163816,44.240666)"
       cx="99.189415"
       cy="185.29727"
       fx="99.189415"
       fy="185.29727"
       r="62.769119" />
    <linearGradient
       id="linearGradient4330">
      <stop
         offset="0"
         style="stop-color:#f0c1ff;stop-opacity:1"
         id="stop4332" />
      <stop
         offset="0.26238"
         style="stop-color:#c5a3f2;stop-opacity:1"
         id="stop4334" />
      <stop
         offset="0.704952"
         style="stop-color:#7a36b1;stop-opacity:1"
         id="stop4336" />
      <stop
         offset="1"
         style="stop-color:#4c2d81;stop-opacity:1"
         id="stop4338" />
    </linearGradient>
    <linearGradient
       osb:paint="solid"
       id="linearGradient4526">
      <stop
         id="stop4528"
         offset="0"
         style="stop-color:#ffffff;stop-opacity:1;" />
    </linearGradient>
    <radialGradient
       xlink:href="#linearGradient4330"
       id="radialGradient3092"
       gradientUnits="userSpaceOnUse"
       gradientTransform="matrix(0,8.4853025,-8.9764378,-2.3095688e-7,107.84892,-32.827113)"
       cx="1.7447759"
       cy="8.4497671"
       fx="1.7447759"
       fy="8.4497671"
       r="19.99999" />
  </defs>
  <metadata
     id="metadata4523">
    <rdf:RDF>
      <cc:Work
         rdf:about="">
        <dc:format>image/svg+xml</dc:format>
        <dc:type
           rdf:resource="http://purl.org/dc/dcmitype/StillImage" />
        <dc:title />
      </cc:Work>
    </rdf:RDF>
  </metadata>
  <g
     transform="translate(1.55e-6,-0.00183192)"
     id="g4198">
    <path
       d="m 55.999998,57.0017 a 24,6.9985714 0 1 1 -47.9999991,0 24,6.9985714 0 1 1 47.9999991,0 z"
       id="path3818-0"
       style="opacity:0.2;fill:url(#radialGradient3300);fill-opacity:1;stroke:none" />
    <path
       style="opacity:0.4;fill:url(#radialGradient4192);fill-opacity:1;stroke:none"
       id="path4190"
       d="m 47.999998,59.0017 a 16,4.9988822 0 1 1 -31.999999,0 16,4.9988822 0 1 1 31.999999,0 z" />
  </g>
  <path
     d="m 31.999946,2.4999964 c -16.277083,0 -29.500004,13.2229156 -29.500004,29.4999976 0,16.277087 13.222921,29.500008 29.500004,29.500004 16.277077,0 29.50001,-13.222917 29.499996,-29.500004 0,-16.277082 -13.222919,-29.4999976 -29.499996,-29.4999976 z"
     id="path2555"
     style="color:#000000;display:inline;overflow:visible;visibility:visible;fill:url(#radialGradient3092);fill-opacity:1;fill-rule:nonzero;stroke:none;stroke-width:1;marker:none;enable-background:accumulate" />
  <path
     style="fill:none;stroke:url(#linearGradient3546);stroke-width:1;stroke-linecap:round;stroke-linejoin:round;stroke-miterlimit:4;stroke-dasharray:none;stroke-dashoffset:0;stroke-opacity:1"
     id="path3805-8"
     d="M 31.979424,3.7157009 A 12.497974,28.284887 0 0 0 29.47491,59.690953" />
  <path
     style="opacity:0.8;fill:none;stroke:url(#linearGradient3543);stroke-width:1;stroke-linecap:round;stroke-linejoin:round;stroke-miterlimit:4;stroke-dasharray:none;stroke-dashoffset:0;stroke-opacity:1"
     id="path3609-5"
     d="M 37.317564,57.622374 A 12.497974,28.284887 0 0 0 31.993514,3.7156062" />
  <g
     id="g3191"
     transform="matrix(1.4390215,0,0,1.4390215,98.587414,-8.161078)">
    <path
       style="color:#000000;display:inline;overflow:visible;visibility:visible;opacity:0.8;fill:#ffffff;fill-opacity:1;fill-rule:nonzero;stroke:#ffffff;stroke-width:0.69521314;stroke-linecap:round;stroke-linejoin:round;stroke-miterlimit:4;stroke-dasharray:none;stroke-dashoffset:0;stroke-opacity:0.52127662;marker:none;enable-background:accumulate"
       id="path3775-8"
       d="m -44.199125,45.136098 a 1.8282365,1.8282365 0 0 0 3.656473,0 1.8282365,1.8282365 0 1 0 -3.656473,0 z" />
  </g>
  <path
     style="fill:none;stroke:url(#linearGradient3538);stroke-width:1;stroke-linecap:round;stroke-linejoin:round;stroke-miterlimit:4;stroke-dasharray:none;stroke-dashoffset:0;stroke-opacity:1"
     id="path3801-6"
     d="M 15.54219,10.279146 A 28.284887,12.497974 45 0 1 51.469844,52.485791" />
  <path
     style="opacity:0.8;fill:none;stroke:url(#linearGradient3535);stroke-width:1;stroke-linecap:round;stroke-linejoin:round;stroke-miterlimit:4;stroke-dasharray:none;stroke-dashoffset:0;stroke-opacity:1"
     id="path3611-3"
     d="M 52.023964,52.000849 A 28.284887,12.497974 45 0 1 10.185732,16.477733" />
  <path
     style="color:#000000;display:inline;overflow:visible;visibility:visible;opacity:0.8;fill:#ffffff;fill-opacity:1;fill-rule:nonzero;stroke:#ffffff;stroke-width:1.00042665;stroke-linecap:round;stroke-linejoin:round;stroke-miterlimit:4;stroke-dasharray:none;stroke-dashoffset:0;stroke-opacity:0.52127662;marker:none;enable-background:accumulate"
     id="path3781-3"
     d="m 12.947397,17.40588 a 2.630872,2.630872 0 0 1 -5.261744,0 2.630872,2.630872 0 1 1 5.261744,0 z" />
  <path
     style="opacity:0.8;fill:none;stroke:url(#linearGradient3531);stroke-width:1;stroke-linecap:round;stroke-linejoin:round;stroke-miterlimit:4;stroke-dasharray:none;stroke-dashoffset:0;stroke-opacity:1"
     id="path3613-2"
     d="M 52.277164,12.68986 A 12.497974,28.284887 45 0 0 10.459861,42.885913" />
  <path
     style="opacity:0.8;fill:#ffffff;fill-opacity:1;stroke:#ffffff;stroke-width:1.00042665;stroke-linecap:round;stroke-linejoin:round;stroke-miterlimit:4;stroke-dasharray:none;stroke-dashoffset:0;stroke-opacity:0.52127662"
     id="path3615-8"
     d="m 10.072947,47.290705 a 2.630872,2.630872 0 0 0 0,-5.261744 2.630872,2.630872 0 1 0 0,5.261744 z" />
  <path
     style="fill:none;stroke:url(#linearGradient3527);stroke-width:1;stroke-linecap:round;stroke-linejoin:round;stroke-miterlimit:4;stroke-dasharray:none;stroke-dashoffset:0;stroke-opacity:1"
     id="path3787-6"
     d="M 11.830366,52.171273 A 12.497974,28.284887 45 0 0 52.643654,13.234675" />
  <path
     style="fill:none;stroke:url(#linearGradient3524);stroke-width:1;stroke-linecap:round;stroke-linejoin:round;stroke-miterlimit:4;stroke-dasharray:none;stroke-dashoffset:0;stroke-opacity:1"
     id="path2835-7"
     d="M 56.114604,25.451706 A 28.284887,12.497974 0 0 0 3.769582,32.584826" />
  <path
     style="color:#000000;display:inline;overflow:visible;visibility:visible;opacity:0.8;fill:#ffffff;fill-opacity:1;fill-rule:nonzero;stroke:#ffffff;stroke-width:1.00042665;stroke-linecap:round;stroke-linejoin:round;stroke-miterlimit:4;stroke-dasharray:none;stroke-dashoffset:0;stroke-opacity:0.52127662;marker:none;enable-background:accumulate"
     id="path3722-4"
     d="m 59.239244,25.956982 a 2.6308716,2.6308716 0 0 0 -5.26174,0 2.6308716,2.6308716 0 1 0 5.26174,0 z" />
  <path
     style="fill:none;stroke:url(#linearGradient3520);stroke-width:1;stroke-linecap:round;stroke-linejoin:round;stroke-miterlimit:4;stroke-dasharray:none;stroke-dashoffset:0;stroke-opacity:1"
     id="path3797-3"
     d="M 3.908871,33.36953 A 28.284887,12.497974 0 0 0 60.261234,32.72199" />
  <path
     style="color:#000000;display:inline;overflow:visible;visibility:visible;opacity:0.5;fill:none;stroke:#6326b9;stroke-width:1;stroke-linecap:butt;stroke-linejoin:miter;stroke-miterlimit:4;stroke-dasharray:none;stroke-dashoffset:0;stroke-opacity:1;marker:none;enable-background:accumulate;clip-rule:nonzero;isolation:auto;mix-blend-mode:normal;color-interpolation:sRGB;color-interpolation-filters:linearRGB;solid-color:#000000;solid-opacity:1;fill-opacity:1;fill-rule:nonzero;filter-blend-mode:normal;filter-gaussianBlur-deviation:0;color-rendering:auto;image-rendering:auto;shape-rendering:auto;text-rendering:auto"
     id="path2555-7-1"
     d="m 32,2.499999 c -16.277082,0 -29.5,13.222915 -29.5,29.499998 0,16.277083 13.222918,29.500005 29.5,29.5 16.27708,0 29.50001,-13.222917 29.5,-29.5 C 61.5,15.722914 48.27708,2.499999 32,2.499999 Z" />
  <path
     style="color:#000000;display:inline;overflow:visible;visibility:visible;opacity:0.5;fill:none;stroke:url(#linearGradient3549);stroke-width:1;stroke-linecap:round;stroke-linejoin:round;stroke-miterlimit:4;stroke-dasharray:none;stroke-dashoffset:0;stroke-opacity:1;marker:none;enable-background:accumulate"
     id="path3026-5"
     d="m 60.499998,32 c 0,15.740111 -12.7599,28.499991 -28.500011,28.499991 C 16.259892,60.499991 3.5000025,47.740111 3.5000025,32 3.5000025,16.259889 16.259892,3.500005 31.999987,3.500005 47.740098,3.500005 60.499998,16.259889 60.499998,32 Z" />
  <path
     style="fill:url(#radialGradient4405);fill-opacity:1;stroke:none"
     id="path2555-1"
     d="M 48.000003,32.5 C 39.447637,32.5 32.5,39.447634 32.5,47.999998 32.5,56.552366 39.447637,63.500004 48.000003,63.5 56.552364,63.5 63.500009,56.552366 63.5,47.999998 63.5,39.447634 56.552364,32.5 48.000003,32.5 Z" />
  <path
     style="opacity:0.4;fill:none;stroke:url(#linearGradient4402);stroke-width:1;stroke-miterlimit:4;stroke-dasharray:none;stroke-opacity:1"
     id="path2463-6"
     d="m 62.5,47.999485 c 0,8.008388 -6.49235,14.500514 -14.499816,14.500514 C 39.991983,62.499999 33.5,56.007801 33.5,47.999485 33.5,39.99147 39.991983,33.500001 48.000184,33.500001 56.00765,33.500001 62.5,39.99147 62.5,47.999485 l 0,0 z" />
  <path
     style="font-style:normal;font-variant:normal;font-weight:normal;font-stretch:normal;font-size:89.63063812px;line-height:125%;font-family:Georgia;text-align:start;writing-mode:lr-tb;text-anchor:start;opacity:0.2;fill:#000000;fill-opacity:1;stroke:none"
     id="path3360-8"
     d="m 36,47 c 7.999999,0 16.000001,0 24,0 0,-0.333333 0,-0.666667 0,-1 -7.999999,0 -16.000001,0 -24,0 0,0.333333 0,0.666667 0,1 z" />
  <path
     style="font-style:normal;font-variant:normal;font-weight:normal;font-stretch:normal;font-size:89.63063812px;line-height:125%;font-family:Georgia;text-align:start;writing-mode:lr-tb;text-anchor:start;fill:#ffffff;fill-opacity:1;stroke:none"
     id="path3271-6"
     d="m 36,51 c 7.999999,0 16.000001,0 24,0 0,-1.333331 0,-2.666666 0,-4 -7.999999,0 -16.000001,0 -24,0 0,1.333334 0,2.666669 0,4 z" />
  <path
     style="opacity:0.3;fill:none;stroke:#000000;stroke-width:1.00365424;stroke-linecap:round;stroke-linejoin:round;stroke-miterlimit:4;stroke-dasharray:none;stroke-dashoffset:0;stroke-opacity:1"
     id="path2555-4-9"
     d="m 48.000015,32.501851 c -8.551351,0 -15.498164,6.94681 -15.498164,15.498159 0,8.551353 6.946813,15.498167 15.498164,15.498163 8.551346,0 15.498167,-6.94681 15.498158,-15.498163 0,-8.551349 -6.946812,-15.498159 -15.498158,-15.498159 z" />
</svg>

<svg xmlns="http://www.w3.org/2000/svg" xmlns:xlink="http://www.w3.org/1999/xlink" width="64" height="64"><defs><linearGradient x1="63.397" y1="-12.489" x2="63.397" y2="5.468" id="u" xlink:href="#a" gradientUnits="userSpaceOnUse" gradientTransform="matrix(1.658 0 0 1.65796 -55.128 53.82)"/><linearGradient id="a"><stop offset="0" stop-color="#fff"/><stop offset="1" stop-color="#fff" stop-opacity="0"/></linearGradient><radialGradient cx="23.407" cy="3.99" r="20.397" fx="23.407" fy="3.99" id="t" xlink:href="#b" gradientUnits="userSpaceOnUse" gradientTransform="matrix(0 2.07282 -2.73608 0 58.917 -18.2)"/><linearGradient id="b"><stop offset="0" stop-color="#f8b17e"/><stop offset=".262" stop-color="#e35d4f"/><stop offset=".661" stop-color="#c6262e"/><stop offset="1" stop-color="#690b54"/></linearGradient><linearGradient x1="71.204" y1="15.369" x2="71.204" y2="40.496" id="s" xlink:href="#c" gradientUnits="userSpaceOnUse" gradientTransform="translate(-138.572 -33.857) scale(2.36328)"/><linearGradient id="c"><stop offset="0" stop-color="#fff"/><stop offset=".424" stop-color="#fff" stop-opacity=".235"/><stop offset=".821" stop-color="#fff" stop-opacity=".157"/><stop offset="1" stop-color="#fff" stop-opacity=".392"/></linearGradient><linearGradient x1="37.5" y1="23" x2="49.09" y2="23.173" id="r" xlink:href="#d" gradientUnits="userSpaceOnUse" gradientTransform="matrix(1.31558 0 0 -1.31558 -1.524 62.26)"/><linearGradient id="d"><stop offset="0" stop-color="#fff" stop-opacity=".134"/><stop offset="1" stop-color="#fff" stop-opacity="0"/></linearGradient><linearGradient x1="4.49" y1="23" x2="47.5" y2="23" id="q" xlink:href="#e" gradientUnits="userSpaceOnUse" gradientTransform="matrix(1.31558 0 0 -1.31558 -1.524 62.26)"/><linearGradient id="e"><stop offset="0" stop-color="#fff" stop-opacity=".492"/><stop offset="1" stop-color="#fff"/></linearGradient><linearGradient x1="14.893" y1="23.707" x2="2.832" y2="24.109" id="p" xlink:href="#d" gradientUnits="userSpaceOnUse" gradientTransform="rotate(-45 107.962 3.065) scale(1.31558)"/><linearGradient x1="48.127" y1="25.828" x2="2.873" y2="24.414" id="o" xlink:href="#e" gradientUnits="userSpaceOnUse" gradientTransform="rotate(-45 107.962 3.065) scale(1.31558)"/><linearGradient x1="46.006" y1="23.707" x2="4.287" y2="27.243" id="n" xlink:href="#e" gradientUnits="userSpaceOnUse" gradientTransform="rotate(45 30.682 29.29) scale(1.31558)"/><linearGradient x1="14.893" y1="22.293" x2="4.063" y2="21.83" id="m" xlink:href="#d" gradientUnits="userSpaceOnUse" gradientTransform="rotate(45 30.682 29.29) scale(1.31558)"/><linearGradient x1="3.5" y1="23" x2="47.5" y2="23" id="l" xlink:href="#e" gradientUnits="userSpaceOnUse" gradientTransform="matrix(0 1.31558 1.31558 0 1.765 -1.547)"/><linearGradient x1="35.5" y1="22" x2="48.263" y2="21.914" id="k" xlink:href="#d" gradientUnits="userSpaceOnUse" gradientTransform="matrix(0 1.31558 1.31558 0 1.765 -1.547)"/><radialGradient xlink:href="#f" id="h" gradientUnits="userSpaceOnUse" gradientTransform="matrix(.38235 0 0 .11152 -5.925 36.336)" cx="99.189" cy="185.297" fx="99.189" fy="185.297" r="62.769"/><linearGradient id="f"><stop offset="0"/><stop offset="1" stop-opacity="0"/></linearGradient><radialGradient xlink:href="#f" id="i" gradientUnits="userSpaceOnUse" gradientTransform="matrix(.2549 0 0 .07966 6.716 44.24)" cx="99.189" cy="185.297" fx="99.189" fy="185.297" r="62.769"/><linearGradient id="g"><stop offset="0" stop-color="#f0c1ff"/><stop offset=".262" stop-color="#c5a3f2"/><stop offset=".705" stop-color="#7a36b1"/><stop offset="1" stop-color="#4c2d81"/></linearGradient><radialGradient xlink:href="#g" id="j" gradientUnits="userSpaceOnUse" gradientTransform="matrix(0 8.4853 -8.97644 0 107.85 -32.827)" cx="1.745" cy="8.45" fx="1.745" fy="8.45" r="20"/></defs><path d="M56 57.002a24 7 0 1 1-48 0 24 7 0 1 1 48 0z" opacity=".2" fill="url(#h)" transform="translate(0 -.002)"/><path d="M48 59.002a16 5 0 1 1-32 0 16 5 0 1 1 32 0z" opacity=".4" fill="url(#i)" transform="translate(0 -.002)"/><path d="M32 2.5C15.723 2.5 2.5 15.723 2.5 32S15.723 61.5 32 61.5 61.5 48.277 61.5 32 48.277 2.5 32 2.5z" color="#000" overflow="visible" fill="url(#j)"/><path d="M31.98 3.716a12.498 28.285 0 0 0-2.505 55.975" fill="none" stroke="url(#k)" stroke-linecap="round" stroke-linejoin="round"/><path d="M37.318 57.622a12.498 28.285 0 0 0-5.324-53.906" opacity=".8" fill="none" stroke="url(#l)" stroke-linecap="round" stroke-linejoin="round"/><path d="M34.984 56.79a2.63 2.63 0 0 0 5.262 0 2.63 2.63 0 1 0-5.262 0z" color="#000" overflow="visible" opacity=".8" fill="#fff" stroke="#fff" stroke-linecap="round" stroke-linejoin="round" stroke-opacity=".521"/><path d="M15.542 10.28A28.285 12.498 45 0 1 51.47 52.485" fill="none" stroke="url(#m)" stroke-linecap="round" stroke-linejoin="round"/><path d="M52.024 52a28.285 12.498 45 0 1-41.838-35.52" opacity=".8" fill="none" stroke="url(#n)" stroke-linecap="round" stroke-linejoin="round"/><path d="M12.947 17.406a2.63 2.63 0 0 1-5.26 0 2.63 2.63 0 1 1 5.26 0z" color="#000" overflow="visible" opacity=".8" fill="#fff" stroke="#fff" stroke-linecap="round" stroke-linejoin="round" stroke-opacity=".521"/><path d="M52.277 12.69A12.498 28.285 45 0 0 10.46 42.886" opacity=".8" fill="none" stroke="url(#o)" stroke-linecap="round" stroke-linejoin="round"/><path d="M10.073 47.29a2.63 2.63 0 0 0 0-5.26 2.63 2.63 0 1 0 0 5.26z" opacity=".8" fill="#fff" stroke="#fff" stroke-linecap="round" stroke-linejoin="round" stroke-opacity=".521"/><path d="M11.83 52.17a12.498 28.285 45 0 0 40.814-38.935" fill="none" stroke="url(#p)" stroke-linecap="round" stroke-linejoin="round"/><path d="M56.115 25.452A28.285 12.498 0 0 0 3.77 32.585" fill="none" stroke="url(#q)" stroke-linecap="round" stroke-linejoin="round"/><path d="M59.24 25.957a2.63 2.63 0 0 0-5.262 0 2.63 2.63 0 1 0 5.26 0z" color="#000" overflow="visible" opacity=".8" fill="#fff" stroke="#fff" stroke-linecap="round" stroke-linejoin="round" stroke-opacity=".521"/><path d="M3.91 33.37a28.285 12.498 0 0 0 56.35-.648" fill="none" stroke="url(#r)" stroke-linecap="round" stroke-linejoin="round"/><path style="isolation:auto;mix-blend-mode:normal;filter-blend-mode:normal;filter-gaussianBlur-deviation:0" d="M32 2.5C15.723 2.5 2.5 15.723 2.5 32S15.723 61.5 32 61.5 61.5 48.277 61.5 32 48.277 2.5 32 2.5z" color="#000" overflow="visible" opacity=".5" fill="none" stroke="#6326b9"/><path d="M60.5 32c0 15.74-12.76 28.5-28.5 28.5S3.5 47.74 3.5 32 16.26 3.5 32 3.5 60.5 16.26 60.5 32z" color="#000" overflow="visible" opacity=".5" fill="none" stroke="url(#s)" stroke-linecap="round" stroke-linejoin="round"/><path d="M48 32.5c-8.552 0-15.5 6.948-15.5 15.5S39.448 63.5 48 63.5 63.5 56.552 63.5 48 56.552 32.5 48 32.5z" fill="url(#t)"/><path d="M62.5 48c0 8.008-6.492 14.5-14.5 14.5S33.5 56.008 33.5 48c0-8.01 6.492-14.5 14.5-14.5S62.5 39.99 62.5 48z" opacity=".4" fill="none" stroke="url(#u)"/><path style="line-height:125%;text-align:start" d="M36 47h24v-1H36v1z" font-weight="400" font-size="89.631" font-family="Georgia" opacity=".2"/><path style="line-height:125%;text-align:start" d="M36 51h24v-4H36v4z" font-weight="400" font-size="89.631" font-family="Georgia" fill="#fff"/><path d="M48 32.502c-8.55 0-15.498 6.947-15.498 15.498 0 8.55 6.947 15.498 15.498 15.498 8.55 0 15.498-6.947 15.498-15.498 0-8.55-6.947-15.498-15.498-15.498z" opacity=".3" fill="none" stroke="#000" stroke-width="1.004" stroke-linecap="round" stroke-linejoin="round"/></svg>
